img/icon-cross.svg

<svg width="21" height="21" xmlns="http://www.w3.org/2000/svg" fill="#cccccc"><path d="M20.875 2.668l-7.769 7.769 7.765 7.766-2.657 2.657-7.765-7.765-7.779 7.779-2.657-2.657 7.779-7.779L.009 2.654 2.666-.003l7.783 7.783L18.218.011l2.657 2.657z"/></svg>

<svg width="21" height="21" viewBox="0 0 21 21" style="fill: #dddddd" xmlns="http://www.w3.org/2000/svg">
  <path d="M20.875,2.668 L13.106,10.437 L20.871,18.203 L18.214,20.860 L10.449,13.095 L2.670,20.874 L0.013,18.217 L7.792,10.438 L0.009,2.654 L2.666,-0.003 L10.449,7.780 L18.218,0.011 L20.875,2.668 Z" class="cls-1"/>
</svg>
